X:1
T:Title
%%score { 1 | 2 }
L:1/8
M:2/4
K:G
V:1 treble nm="Grand Piano"
V:2 treble 
V:1
 z2 z[Q:1/4=90] D | GG GA | BB B[Gd] | [B,G]2 [DGB]2 | [DFA]4 | GG GA | BB Bd | G2 [CFA]2 | %8
 [B,G]3 [DB] | [Ec][Ec] [Ec][Ec] |[M:3/8] BBB |[M:1/8] B |[M:2/4] [FA][FA] [FA][FA] | %13
 [DGB][DGB] [DGB][G,DG] | [G,CE]2 [G,CG]2 | [B,D]2 [B,DG]2 | [DGB]2 [CFA]2 | %17
[M:9/16] [B,G]4- [B,G]/ |[M:1/8] B |[M:2/4] AD DA | BB, B,B | Ae dc | B3 d | BB, B,c | AD D[DFA] | %25
 [DGB][CEA] [B,DG][A,DF][Q:1/4=87][Q:1/4=84][Q:1/4=82][Q:1/4=79][Q:1/4=76][Q:1/4=73][Q:1/4=70] | %26
[M:3/8] [B,DG]3 |] %27
V:2
 z4 | B,B, B,D | GG G[K:bass]B, | G,2 G,2 | D,3 D | B,B, B,[K:treble]D | GG G[G,B,G] | %7
 [G,B,]2 D,2 | G,,3 G, | [C,G,][C,G,] [C,G,][C,G,] |[M:3/8][K:treble] [G,D][G,D][G,D] | %11
[M:1/8] [G,B,G] |[M:2/4][K:bass] [D,D][D,D] [D,D][D,D] | G,G, G,B,, | C,2 E,2 | G,2 G,2 | D,2 D,2 | %17
[M:9/16] G,,4- G,,/ |[M:1/8][K:treble] G |[M:2/4] F[K:bass]D, D,[K:treble]F | GG, G,G | %21
 F[CG] [B,DG][A,DF] | [G,DG]3 F | GG, G,E | F[K:bass]D, D,D, | G,C, D,D, |[M:3/8] G,,3 |] %27

